chrome/icons/add-to-single.svg

<svg width="16" height="16" viewBox="0 0 16 16" fill="none" xmlns="http://www.w3.org/2000/svg">
<g clip-path="url(#clip0_52_1143)">
<path d="M3.61538 16C3.13462 16 2.67467 15.9023 2.23558 15.7067C1.79648 15.5112 1.41187 15.2484 1.08173 14.9183C0.751596 14.5881 0.488783 14.2035 0.293269 13.7644C0.0977558 13.3253 0 12.8654 0 12.3846V3.61538C0 3.13462 0.0977558 2.67467 0.293269 2.23558C0.488783 1.79648 0.751596 1.41187 1.08173 1.08173C1.41187 0.751596 1.79648 0.488783 2.23558 0.293269C2.67467 0.0977577 3.13462 1.92308e-06 3.61538 0H12.3846C12.8654 1.92308e-06 13.3253 0.0977577 13.7644 0.293269C14.2035 0.488783 14.5881 0.751596 14.9183 1.08173C15.2484 1.41187 15.5112 1.79648 15.7067 2.23558C15.9023 2.67467 16 3.13462 16 3.61538V12.3846C16 12.8654 15.9023 13.3253 15.7067 13.7644C15.5112 14.2035 15.2484 14.5881 14.9183 14.9183C14.5881 15.2484 14.2035 15.5112 13.7644 15.7067C13.3253 15.9023 12.8654 16 12.3846 16H3.61538ZM12.3558 14.7692C12.6763 14.7692 12.9824 14.7035 13.274 14.5721C13.5657 14.4407 13.8221 14.2644 14.0433 14.0433C14.2644 13.8221 14.4407 13.5657 14.5721 13.274C14.7035 12.9824 14.7692 12.6763 14.7692 12.3558V3.64423C14.7692 3.32371 14.7035 3.01763 14.5721 2.72596C14.4407 2.43429 14.2644 2.17788 14.0433 1.95673C13.8221 1.73558 13.5657 1.55929 13.274 1.42788C12.9824 1.29648 12.6763 1.23077 12.3558 1.23077H3.64423C3.32371 1.23077 3.01763 1.29648 2.72596 1.42788C2.43429 1.55929 2.17788 1.73558 1.95673 1.95673C1.73558 2.17788 1.55929 2.43429 1.42788 2.72596C1.29648 3.01763 1.23077 3.32371 1.23077 3.64423V12.3558C1.23077 12.6763 1.29648 12.9824 1.42788 13.274C1.55929 13.5657 1.73558 13.8221 1.95673 14.0433C2.17788 14.2644 2.43429 14.4407 2.72596 14.5721C3.01763 14.7035 3.32371 14.7692 3.64423 14.7692H12.3558ZM7.38462 8.61538H4.30769C4.14102 8.61538 3.99679 8.55448 3.875 8.43269C3.75321 8.3109 3.69231 8.16667 3.69231 8C3.69231 7.83333 3.75321 7.6891 3.875 7.56731C3.99679 7.44552 4.14102 7.38462 4.30769 7.38462H7.38462V4.30769C7.38462 4.14102 7.44552 3.99679 7.56731 3.875C7.6891 3.75321 7.83333 3.69231 8 3.69231C8.16667 3.69231 8.3109 3.75321 8.43269 3.875C8.55448 3.99679 8.61538 4.14102 8.61538 4.30769V7.38462H11.6923C11.859 7.38462 12.0032 7.44552 12.125 7.56731C12.2468 7.6891 12.3077 7.83333 12.3077 8C12.3077 8.16667 12.2468 8.3109 12.125 8.43269C12.0032 8.55448 11.859 8.61538 11.6923 8.61538H8.61538V11.6923C8.61538 11.859 8.55448 12.0032 8.43269 12.125C8.3109 12.2468 8.16667 12.3077 8 12.3077C7.83333 12.3077 7.6891 12.2468 7.56731 12.125C7.44552 12.0032 7.38462 11.859 7.38462 11.6923V8.61538Z" fill="context-fill" fill-opacity="context-fill-opacity"/>
</g>
<defs>
<clipPath id="clip0_52_1143">
<rect width="16" height="16" fill="white"/>
</clipPath>
</defs>
</svg>

<svg xmlns="http://www.w3.org/2000/svg" width="16" height="16" fill="none" viewBox="0 0 16 16"><g clip-path="url(#a)"><path fill="context-fill" fill-opacity="context-fill-opacity" d="M3.615 16q-.72 0-1.38-.293a3.8 3.8 0 0 1-1.153-.789 3.8 3.8 0 0 1-.789-1.154A3.36 3.36 0 0 1 0 12.384V3.616q0-.72.293-1.38.294-.658.789-1.153.494-.495 1.154-.789Q2.895 0 3.616 0h8.769q.72 0 1.38.293.658.294 1.153.789.495.494.789 1.154.293.659.293 1.38v8.769q0 .72-.293 1.38-.294.658-.789 1.153t-1.154.789-1.38.293zm8.74-1.23q.481 0 .919-.198a2.57 2.57 0 0 0 1.298-1.298 2.2 2.2 0 0 0 .197-.918V3.644q0-.48-.197-.918a2.57 2.57 0 0 0-1.298-1.298 2.2 2.2 0 0 0-.918-.197H3.644q-.48 0-.918.197a2.57 2.57 0 0 0-1.298 1.298 2.2 2.2 0 0 0-.197.918v8.712q0 .48.197.918a2.57 2.57 0 0 0 1.298 1.298q.438.197.918.197zm-4.97-6.155H4.308a.6.6 0 0 1-.433-.182A.6.6 0 0 1 3.692 8q0-.25.183-.433a.6.6 0 0 1 .433-.182h3.077V4.308q0-.25.182-.433A.6.6 0 0 1 8 3.692q.25 0 .433.183a.6.6 0 0 1 .182.433v3.077h3.077q.25 0 .433.182a.6.6 0 0 1 .183.433q0 .25-.183.433a.6.6 0 0 1-.433.182H8.615v3.077q0 .25-.182.433a.6.6 0 0 1-.433.183.6.6 0 0 1-.433-.183.6.6 0 0 1-.182-.433z"/></g><defs><clipPath id="a"><path fill="#fff" d="M0 0h16v16H0z"/></clipPath></defs></svg>
